src/assets/icons/swap.svg

<?xml version="1.0" encoding="UTF-8"?>
<svg width="50px" height="50px" viewBox="0 0 50 50" version="1.1" xmlns="http://www.w3.org/2000/svg" xmlns:xlink="http://www.w3.org/1999/xlink">
    <title>椭圆形备份 4</title>
    <g id="扩展程序" stroke="none" stroke-width="1" fill="none" fill-rule="evenodd">
        <g id="资产" transform="translate(-243.000000, -172.000000)" fill="#6E7585">
            <g id="编组-11" transform="translate(83.000000, 172.000000)">
                <g id="编组-7" transform="translate(160.000000, 0.000000)">
                    <circle id="椭圆形备份-4" opacity="0.049999997" cx="25" cy="25" r="25"></circle>
                    <path d="M29.1715729,17.7573593 L32.7071068,21.2928932 C32.7341207,21.3199072 32.7595963,21.3484595 32.7833908,21.3784075 L32.7071068,21.2928932 C32.7465715,21.332358 32.7820481,21.3743006 32.8135366,21.4182204 C32.8277329,21.4381467 32.841573,21.4590495 32.8546295,21.4804822 C32.8610888,21.4909214 32.8672827,21.5015317 32.8732648,21.5122285 C32.8849663,21.5332887 32.8960049,21.5547964 32.9062701,21.5767381 C32.9150274,21.5954049 32.9231947,21.6144279 32.9307447,21.6336374 C32.9371193,21.6497636 32.9431898,21.6664473 32.9488223,21.6833314 C32.954859,21.7016611 32.9602745,21.7196452 32.9651732,21.73774 C32.9706765,21.7576898 32.975611,21.7784561 32.979887,21.7994617 C32.9831877,21.8161027 32.9861473,21.8327915 32.9886814,21.8495323 C32.9920267,21.8712461 32.9945829,21.8929795 32.9964311,21.9149143 C32.9978612,21.9321496 32.9988858,21.9495547 32.9994578,21.9669718 C32.9998183,21.9777892 33,21.9888734 33,22 L32.9994578,22.0330282 C32.9988858,22.0504453 32.9978612,22.0678504 32.996384,22.0852242 L33,22 C33,22.0510723 32.9961713,22.1012503 32.9887854,22.1502627 C32.9861473,22.1672085 32.9831877,22.1838973 32.9798025,22.2005167 C32.975611,22.2215439 32.9706765,22.2423102 32.965106,22.2628145 C32.9602745,22.2803548 32.954859,22.2983389 32.9489267,22.316189 C32.9431898,22.3335527 32.9371193,22.3502364 32.9306242,22.3667063 C32.9231947,22.3855721 32.9150274,22.4045951 32.9062428,22.423401 C32.8960049,22.4452036 32.8849663,22.4667113 32.8731893,22.4877497 C32.8672827,22.4984683 32.8610888,22.5090786 32.8546831,22.5195962 C32.841573,22.5409505 32.8277329,22.5618533 32.8131491,22.5821867 C32.8039771,22.5951131 32.79405,22.6082645 32.7837553,22.6212195 C32.7345225,22.6830986 32.6785636,22.7387178 32.6167501,22.787214 L32.7071068,22.7071068 C32.6696307,22.7445828 32.6299202,22.7784626 32.588404,22.808746 C32.5681679,22.8233955 32.5475797,22.8372583 32.5264676,22.8503568 C32.5076511,22.8621434 32.4880991,22.8733725 32.4682677,22.8838873 C32.4534152,22.8916975 32.4383622,22.8992089 32.4230991,22.9063462 C32.4083727,22.9132592 32.3933887,22.9198069 32.3782845,22.9259698 C32.3554315,22.9353159 32.3322926,22.9437919 32.3087717,22.95142 C32.2961293,22.9554564 32.2830848,22.9593892 32.2699804,22.9630499 C32.2445948,22.9702283 32.2189183,22.9763267 32.1928801,22.9814146 C32.1799509,22.9838528 32.1672249,22.9860839 32.154468,22.9880676 C32.1321752,22.9916114 32.109107,22.9943899 32.085811,22.9963697 C32.0679231,22.997855 32.050591,22.9988772 32.0332468,22.9994506 C32.0224019,22.9998151 32.0112225,23 32,23 L18,23 C17.4477153,23 17,22.5522847 17,22 C17,21.4477153 17.4477153,21 18,21 L29.585,20.9994661 L27.7573593,19.1715729 C27.366835,18.7810486 27.366835,18.1478836 27.7573593,17.7573593 C28.1478836,17.366835 28.7810486,17.366835 29.1715729,17.7573593 Z M32,27 C32.5522847,27 33,27.4477153 33,28 C33,28.5522847 32.5522847,29 32,29 L20.414,28.9994661 L22.2426407,30.8284271 C22.633165,31.2189514 22.633165,31.8521164 22.2426407,32.2426407 C21.8521164,32.633165 21.2189514,32.633165 20.8284271,32.2426407 L17.2928932,28.7071068 L17.2196888,28.625449 C17.2186591,28.6241661 17.2176326,28.6228806 17.2166092,28.6215925 L17.2928932,28.7071068 C17.2534285,28.667642 17.2179519,28.6256994 17.1864634,28.5817796 C17.1722671,28.5618533 17.158427,28.5409505 17.1453705,28.5195178 C17.1389112,28.5090786 17.1327173,28.4984683 17.1267352,28.4877715 C17.1150337,28.4667113 17.1039951,28.4452036 17.0937299,28.4232619 C17.0849726,28.4045951 17.0768053,28.3855721 17.0692553,28.3663626 C17.0628807,28.3502364 17.0568102,28.3335527 17.0511777,28.3166686 C17.045141,28.2983389 17.0397255,28.2803548 17.0348268,28.26226 C17.0293235,28.2423102 17.024389,28.2215439 17.020113,28.2005383 C17.0168123,28.1838973 17.0138527,28.1672085 17.0113186,28.1504677 C17.0081684,28.1300481 17.0057272,28.1096353 17.0039103,28.0890432 C17.0019146,28.0662157 17.0006589,28.0431238 17.0001991,28.0200189 C17.0000667,28.0134712 17,28.0067434 17,28 L17.0001797,27.9809819 C17.0006228,27.9575431 17.001885,27.9341169 17.0039664,27.9107499 L17,28 C17,27.9489277 17.0038287,27.8987497 17.0112146,27.8497373 C17.0138527,27.8327915 17.0168123,27.8161027 17.0201975,27.7994833 C17.024389,27.7784561 17.0293235,27.7576898 17.034894,27.7371855 C17.0397255,27.7196452 17.045141,27.7016611 17.0510733,27.683811 C17.0568102,27.6664473 17.0628807,27.6497636 17.0693758,27.6332937 C17.0768053,27.6144279 17.0849726,27.5954049 17.0937572,27.576599 C17.1039951,27.5547964 17.1150337,27.5332887 17.1268107,27.5122503 C17.1327173,27.5015317 17.1389112,27.4909214 17.1453169,27.4804038 C17.158427,27.4590495 17.1722671,27.4381467 17.1868509,27.4178133 C17.1960229,27.4048869 17.20595,27.3917355 17.2162447,27.3787805 C17.2654775,27.3169014 17.3214364,27.2612822 17.3832499,27.212786 L17.2928932,27.2928932 C17.3303693,27.2554172 17.3700798,27.2215374 17.411596,27.191254 C17.4318321,27.1766045 17.4524203,27.1627417 17.4735324,27.1496432 C17.4923489,27.1378566 17.5119009,27.1266275 17.5317323,27.1161127 C17.5465848,27.1083025 17.5616378,27.1007911 17.5769009,27.0936538 C17.5916273,27.0867408 17.6066113,27.0801931 17.6217155,27.0740302 C17.6445685,27.0646841 17.6677074,27.0562081 17.6912283,27.04858 C17.7038707,27.0445436 17.7169152,27.0406108 17.7300196,27.0369501 C17.7554052,27.0297717 17.7810817,27.0236733 17.8071199,27.0185854 C17.8200491,27.0161472 17.8327751,27.0139161 17.845532,27.0119324 C17.8674153,27.0084523 17.8900651,27.0057101 17.912935,27.0037377 C17.9317345,27.0021564 17.9497336,27.0010947 17.9677454,27.0005171 C17.9777892,27.0001817 17.9888734,27 18,27 L32,27 Z" id="形状结合备份-3" fill-rule="nonzero"></path>
                </g>
            </g>
        </g>
    </g>
</svg>

<svg width="50" height="50" xmlns="http://www.w3.org/2000/svg"><g fill="#6e7585" fill-rule="evenodd"><circle opacity=".05" cx="25" cy="25" r="25"/><path d="m29.172 17.757 3.535 3.536c.027.027.053.055.076.085l-.076-.085A1.007 1.007 0 0 1 33 22v.033l-.004.052L33 22a1.008 1.008 0 0 1-.216.621 1.01 1.01 0 0 1-.167.166l.09-.08A1.008 1.008 0 0 1 32 23H18a1 1 0 0 1 0-2h11.585l-1.828-1.828a1 1 0 0 1 1.415-1.415zM32 27a1 1 0 0 1 0 2H20.414l1.829 1.828a1 1 0 0 1-1.415 1.415l-3.535-3.536-.073-.082a.994.994 0 0 1-.003-.003l.076.085A1.007 1.007 0 0 1 17 28v-.019c0-.023.002-.047.004-.07L17 28a1.008 1.008 0 0 1 .216-.621 1.01 1.01 0 0 1 .167-.166l-.09.08A1.008 1.008 0 0 1 18 27h14z" fill-rule="nonzero"/></g></svg>
